check-network-outline.svg

<svg fill="currentColor" viewBox="0 0 24 24"><path d="M15 20a1 1 0 0 0-1-1h-1v-2h4a2 2 0 0 0 2-2V5a2 2 0 0 0-2-2H7a2 2 0 0 0-2 2v10a2 2 0 0 0 2 2h4v2h-1a1 1 0 0 0-1 1H2v2h7a1 1 0 0 0 1 1h4a1 1 0 0 0 1-1h7v-2zm-8-5V5h10v10zm1-4.63 1.24-1.24 1.69 1.7L14.76 7 16 8.5l-5.07 5.07z"/></svg>

<svg  viewBox="0 0 24 24" fill="currentColor"><path  d="M15,20A1,1 0 0,0 14,19H13V17H17A2,2 0 0,0 19,15V5A2,2 0 0,0 17,3H7A2,2 0 0,0 5,5V15A2,2 0 0,0 7,17H11V19H10A1,1 0 0,0 9,20H2V22H9A1,1 0 0,0 10,23H14A1,1 0 0,0 15,22H22V20H15M7,15V5H17V15H7M8,10.37L9.24,9.13L10.93,10.83L14.76,7L16,8.5L10.93,13.57L8,10.37Z"/></svg>
